X:1
M:4/4
K:G
(3DEF|G2F2 E2D2|ABcA dBG2|e2d2 c2B2|ABAG FAd2|
B2d2 dBcA|BdB2 GGB2|dcB d2BA|G2FG A2d2|\
BG2A cBAG|G2G2 G4:|
c2|f2ec c2BA|G4|c2e2 e2e2|d2B2 A2FG|A4 A2:|
e2|fef2 e2cc|ecec A2cB|A2Bc defe|dcBA AFEF|
A2A2 A2G2|A2d2 edc2|c2e2 e2e2|d2e2 dcBA|G2F2 G2:|